shader_type canvas_item;

uniform float timer = 0.0;
uniform float[256] y_offsets; //Array size determines how many vertical stips app
uniform sampler2D melt_tex;
uniform bool melting = false;

void fragment() {
	vec2 tex_uv = SCREEN_UV;
	if (melting)
	{
		float index = tex_uv.x * float(y_offsets.length());
		tex_uv.y -= timer * y_offsets[int(index)];
		
		if (tex_uv.y < 0.0 || tex_uv.y > 1.0) discard;
	}
	
	COLOR = texture(melt_tex, tex_uv);
}